src/files/plugin_assets/knob-metal-3.svg

<?xml version="1.0" encoding="UTF-8" standalone="no"?>
<svg
   width="303"
   height="305"
   viewBox="0 0 303 305"
   fill="none"
   version="1.1"
   id="svg120"
   sodipodi:docname="knob-metal-3.svg"
   inkscape:version="1.1 (c68e22c387, 2021-05-23)"
   xmlns:inkscape="http://www.inkscape.org/namespaces/inkscape"
   xmlns:sodipodi="http://sodipodi.sourceforge.net/DTD/sodipodi-0.dtd"
   xmlns="http://www.w3.org/2000/svg"
   xmlns:svg="http://www.w3.org/2000/svg">
  <sodipodi:namedview
     id="namedview122"
     pagecolor="#ffffff"
     bordercolor="#666666"
     borderopacity="1.0"
     inkscape:pageshadow="2"
     inkscape:pageopacity="0.0"
     inkscape:pagecheckerboard="0"
     showgrid="false"
     inkscape:zoom="2.6918033"
     inkscape:cx="151.57125"
     inkscape:cy="152.68575"
     inkscape:window-width="1920"
     inkscape:window-height="1007"
     inkscape:window-x="0"
     inkscape:window-y="0"
     inkscape:window-maximized="1"
     inkscape:current-layer="svg120" />
  <ellipse
     cx="151.5"
     cy="152.558"
     rx="152"
     ry="151.5"
     transform="rotate(-90 151.5 152.558)"
     fill="url(#paint0_linear)"
     id="ellipse2" />
  <ellipse
     cx="152"
     cy="153.058"
     rx="147.5"
     ry="148"
     transform="rotate(-90 152 153.058)"
     fill="url(#paint1_linear)"
     id="ellipse4" />
  <g
     id="g943"
     transform="rotate(-15,151.2797,152.5002)">
    <g
       filter="url(#filter0_d)"
       id="g8">
      <path
         fill-rule="evenodd"
         clip-rule="evenodd"
         d="m 45.6483,109.36 c 6.972,6.636 11.9152,23.259 11.9152,42.716 0,19.688 -5.0615,36.475 -12.1648,42.948 4.0583,10.095 9.5184,19.476 16.1395,27.901 9.1638,-2.899 26.2161,1.113 43.2508,10.948 16.84,9.722 28.76,22.305 31.031,31.659 5.055,0.685 10.216,1.039 15.46,1.039 5.471,0 10.852,-0.385 16.117,-1.13 2.065,-9.387 14.067,-22.154 31.108,-31.992 16.835,-9.72 33.687,-13.752 42.925,-11.047 6.437,-8.29 11.756,-17.491 15.731,-27.378 -7.104,-6.473 -12.165,-23.26 -12.165,-42.948 0,-19.457 4.943,-36.08 11.915,-42.716 -3.946,-9.6528 -9.178,-18.6445 -15.481,-26.762 -9.238,2.7051 -26.09,-1.327 -42.925,-11.0465 -17.041,-9.8384 -29.043,-22.6058 -31.108,-31.9925 -5.265,-0.7446 -10.646,-1.1298 -16.117,-1.1298 -5.244,0 -10.405,0.3538 -15.46,1.0388 -2.271,9.354 -14.191,21.9369 -31.031,31.6595 C 87.7543,80.9623 70.702,84.974 61.5382,82.0747 55.0519,90.3285 49.6797,99.4993 45.6483,109.36 Z"
         fill="url(#paint2_radial)"
         id="path6"
         style="fill:url(#paint2_radial)" />
    </g>
    <g
       filter="url(#filter1_i)"
       id="g12">
      <path
         fill-rule="evenodd"
         clip-rule="evenodd"
         d="m 49.9954,205.158 42.674,-24.638 5.0887,8.814 -42.6661,24.633 c -1.754,-2.897 -3.4539,-5.835 -5.0966,-8.809 z"
         fill="#ffffff"
         id="path10" />
    </g>
  </g>
  <circle
     cx="151.665"
     cy="153.168"
     r="68.5"
     transform="rotate(-30 151.665 153.168)"
     fill="url(#paint3_linear)"
     id="circle14" />
  <circle
     cx="151.665"
     cy="153.168"
     r="67"
     transform="rotate(-30 151.665 153.168)"
     stroke="black"
     stroke-opacity="0.5"
     stroke-width="3"
     id="circle16" />
  <rect
     opacity="0.4"
     x="148.812"
     y="17.5581"
     width="5.54166"
     height="5.54166"
     rx="2.77083"
     fill="#575757"
     stroke="#575757"
     stroke-width="2"
     id="rect18" />
  <rect
     opacity="0.4"
     x="187.917"
     y="28.2479"
     width="5.54166"
     height="5.54166"
     rx="2.77083"
     transform="rotate(-165 187.917 28.2479)"
     fill="#575757"
     stroke="#575757"
     stroke-width="2"
     id="rect20" />
  <rect
     opacity="0.4"
     x="219.004"
     y="41.9074"
     width="5.54166"
     height="5.54166"
     rx="2.77083"
     transform="rotate(-150 219.004 41.9074)"
     fill="#575757"
     stroke="#575757"
     stroke-width="2"
     id="rect22" />
  <rect
     opacity="0.4"
     x="57.6707"
     y="250.972"
     width="5.54166"
     height="5.54166"
     rx="2.77083"
     transform="rotate(-135 57.6707 250.972)"
     fill="#575757"
     stroke="#575757"
     stroke-width="2"
     id="rect24" />
  <rect
     opacity="0.4"
     x="245.496"
     y="63.1473"
     width="5.54166"
     height="5.54166"
     rx="2.77083"
     transform="rotate(-135 245.496 63.1473)"
     fill="#575757"
     stroke="#575757"
     stroke-width="2"
     id="rect26" />
  <rect
     x="35.5501"
     y="223.332"
     width="5.54166"
     height="5.54166"
     rx="2.77083"
     transform="rotate(-120 35.5501 223.332)"
     fill="#575757"
     stroke="#575757"
     stroke-width="2"
     id="rect28" />
  <rect
     opacity="0.4"
     x="265.588"
     y="90.5201"
     width="5.54166"
     height="5.54166"
     rx="2.77083"
     transform="rotate(-120 265.588 90.5201)"
     fill="#575757"
     stroke="#575757"
     stroke-width="2"
     id="rect30" />
  <rect
     opacity="0.4"
     x="21.337"
     y="190.909"
     width="5.54166"
     height="5.54166"
     rx="2.77083"
     transform="rotate(-105 21.337 190.909)"
     fill="#575757"
     stroke="#575757"
     stroke-width="2"
     id="rect32" />
  <rect
     opacity="0.4"
     x="277.911"
     y="122.16"
     width="5.54166"
     height="5.54166"
     rx="2.77083"
     transform="rotate(-105 277.911 122.16)"
     fill="#575757"
     stroke="#575757"
     stroke-width="2"
     id="rect34" />
  <rect
     opacity="0.4"
     x="16"
     y="155.912"
     width="5.54166"
     height="5.54166"
     rx="2.77083"
     transform="rotate(-90 16 155.912)"
     fill="#575757"
     stroke="#575757"
     stroke-width="2"
     id="rect36" />
  <rect
     opacity="0.4"
     x="281.625"
     y="155.912"
     width="5.54166"
     height="5.54166"
     rx="2.77083"
     transform="rotate(-90 281.625 155.912)"
     fill="#575757"
     stroke="#575757"
     stroke-width="2"
     id="rect38" />
  <rect
     opacity="0.4"
     x="19.9027"
     y="120.726"
     width="5.54166"
     height="5.54166"
     rx="2.77083"
     transform="rotate(-75 19.9027 120.726)"
     fill="#575757"
     stroke="#575757"
     stroke-width="2"
     id="rect40" />
  <rect
     opacity="0.4"
     x="276.476"
     y="189.475"
     width="5.54166"
     height="5.54166"
     rx="2.77083"
     transform="rotate(-75 276.476 189.475)"
     fill="#575757"
     stroke="#575757"
     stroke-width="2"
     id="rect42" />
  <rect
     opacity="0.4"
     x="32.7793"
     y="87.7493"
     width="5.54166"
     height="5.54166"
     rx="2.77083"
     transform="rotate(-60 32.7793 87.7493)"
     fill="#575757"
     stroke="#575757"
     stroke-width="2"
     id="rect44" />
  <rect
     opacity="0.4"
     x="262.817"
     y="220.562"
     width="5.54166"
     height="5.54166"
     rx="2.77083"
     transform="rotate(-60 262.817 220.562)"
     fill="#575757"
     stroke="#575757"
     stroke-width="2"
     id="rect46" />
  <rect
     opacity="0.4"
     x="53.7521"
     y="59.2287"
     width="5.54166"
     height="5.54166"
     rx="2.77083"
     transform="rotate(-45 53.7521 59.2287)"
     fill="#575757"
     stroke="#575757"
     stroke-width="2"
     id="rect48" />
  <rect
     opacity="0.4"
     x="241.577"
     y="247.054"
     width="5.54166"
     height="5.54166"
     rx="2.77083"
     transform="rotate(-45 241.577 247.054)"
     fill="#575757"
     stroke="#575757"
     stroke-width="2"
     id="rect50" />
  <rect
     opacity="0.4"
     x="81.3919"
     y="37.1082"
     width="5.54166"
     height="5.54166"
     rx="2.77083"
     transform="rotate(-30 81.3919 37.1082)"
     fill="#575757"
     stroke="#575757"
     stroke-width="2"
     id="rect52" />
  <rect
     opacity="0.4"
     x="113.815"
     y="22.8951"
     width="5.54166"
     height="5.54166"
     rx="2.77083"
     transform="rotate(-15 113.815 22.8951)"
     fill="#575757"
     stroke="#575757"
     stroke-width="2"
     id="rect54" />
  <defs
     id="defs118">
    <filter
       id="filter0_d"
       x="31.3987"
       y="24.4292"
       width="239.762"
       height="256.142"
       filterUnits="userSpaceOnUse"
       color-interpolation-filters="sRGB">
      <feFlood
         flood-opacity="0"
         result="BackgroundImageFix"
         id="feFlood56" />
      <feColorMatrix
         in="SourceAlpha"
         type="matrix"
         values="0 0 0 0 0 0 0 0 0 0 0 0 0 0 0 0 0 0 127 0"
         result="hardAlpha"
         id="feColorMatrix58" />
      <feOffset
         id="feOffset60" />
      <feGaussianBlur
         stdDeviation="7"
         id="feGaussianBlur62" />
      <feComposite
         in2="hardAlpha"
         operator="out"
         id="feComposite64" />
      <feColorMatrix
         type="matrix"
         values="0 0 0 0 0 0 0 0 0 0 0 0 0 0 0 0 0 0 1 0"
         id="feColorMatrix66" />
      <feBlend
         mode="normal"
         in2="BackgroundImageFix"
         result="effect1_dropShadow"
         id="feBlend68" />
      <feBlend
         mode="normal"
         in="SourceGraphic"
         in2="effect1_dropShadow"
         result="shape"
         id="feBlend70" />
    </filter>
    <filter
       id="filter1_i"
       x="49.9555"
       y="180.52"
       width="47.8026"
       height="33.4747"
       filterUnits="userSpaceOnUse"
       color-interpolation-filters="sRGB">
      <feFlood
         flood-opacity="0"
         result="BackgroundImageFix"
         id="feFlood73" />
      <feBlend
         mode="normal"
         in="SourceGraphic"
         in2="BackgroundImageFix"
         result="shape"
         id="feBlend75" />
      <feColorMatrix
         in="SourceAlpha"
         type="matrix"
         values="0 0 0 0 0 0 0 0 0 0 0 0 0 0 0 0 0 0 127 0"
         result="hardAlpha"
         id="feColorMatrix77" />
      <feOffset
         id="feOffset79" />
      <feGaussianBlur
         stdDeviation="2"
         id="feGaussianBlur81" />
      <feComposite
         in2="hardAlpha"
         operator="arithmetic"
         k2="-1"
         k3="1"
         id="feComposite83" />
      <feColorMatrix
         type="matrix"
         values="0 0 0 0 0 0 0 0 0 0 0 0 0 0 0 0 0 0 0.95 0"
         id="feColorMatrix85" />
      <feBlend
         mode="normal"
         in2="shape"
         result="effect1_innerShadow"
         id="feBlend87" />
    </filter>
    <linearGradient
       id="paint0_linear"
       x1="166.442"
       y1="1.05807"
       x2="46.1798"
       y2="265.767"
       gradientUnits="userSpaceOnUse">
      <stop
         stop-color="#575757"
         id="stop90" />
      <stop
         offset="0.491376"
         stop-color="#A29F9F"
         id="stop92" />
      <stop
         offset="1"
         stop-color="#737373"
         id="stop94" />
    </linearGradient>
    <linearGradient
       id="paint1_linear"
       x1="166.5"
       y1="5.05807"
       x2="48.5"
       y2="263.058"
       gradientUnits="userSpaceOnUse">
      <stop
         stop-color="#E5E5E5"
         id="stop97" />
      <stop
         offset="0.491376"
         stop-color="#A29F9F"
         id="stop99" />
      <stop
         offset="1"
         stop-color="#E5E5E5"
         id="stop101" />
    </linearGradient>
    <radialGradient
       id="paint2_radial"
       cx="0"
       cy="0"
       r="1"
       gradientUnits="userSpaceOnUse"
       gradientTransform="matrix(185.24439,22.318266,-24.044671,199.57377,151.035,152.699)">
      <stop
         stop-color="#555555"
         id="stop104" />
      <stop
         offset="1"
         id="stop106" />
    </radialGradient>
    <linearGradient
       id="paint3_linear"
       x1="110.158"
       y1="97.4763"
       x2="184.941"
       y2="211.589"
       gradientUnits="userSpaceOnUse">
      <stop
         stop-color="#BAB8B8"
         id="stop109" />
      <stop
         offset="0.270833"
         stop-color="#ECECEC"
         id="stop111" />
      <stop
         offset="0.770833"
         stop-color="#B7B3B3"
         id="stop113" />
      <stop
         offset="1"
         stop-color="#E6E6E6"
         id="stop115" />
    </linearGradient>
  </defs>
</svg>

<svg width="303" height="305" viewBox="0 0 303 305" fill="none" xmlns="http://www.w3.org/2000/svg">
<ellipse cx="151.5" cy="152.558" rx="152" ry="151.5" transform="rotate(-90 151.5 152.558)" fill="url(#paint0_linear)"/>
<ellipse cx="152" cy="153.058" rx="147.5" ry="148" transform="rotate(-90 152 153.058)" fill="url(#paint1_linear)"/>
<g filter="url(#filter0_d)">
<path fill-rule="evenodd" clip-rule="evenodd" d="M45.6483 109.36C52.6203 115.996 57.5635 132.619 57.5635 152.076C57.5635 171.764 52.502 188.551 45.3987 195.024C49.457 205.119 54.9171 214.5 61.5382 222.925C70.702 220.026 87.7543 224.038 104.789 233.873C121.629 243.595 133.549 256.178 135.82 265.532C140.875 266.217 146.036 266.571 151.28 266.571C156.751 266.571 162.132 266.186 167.397 265.441C169.462 256.054 181.464 243.287 198.505 233.449C215.34 223.729 232.192 219.697 241.43 222.402C247.867 214.112 253.186 204.911 257.161 195.024C250.057 188.551 244.996 171.764 244.996 152.076C244.996 132.619 249.939 115.996 256.911 109.36C252.965 99.7072 247.733 90.7155 241.43 82.598C232.192 85.3031 215.34 81.271 198.505 71.5515C181.464 61.7131 169.462 48.9457 167.397 39.559C162.132 38.8144 156.751 38.4292 151.28 38.4292C146.036 38.4292 140.875 38.783 135.82 39.468C133.549 48.822 121.629 61.4049 104.789 71.1275C87.7543 80.9623 70.702 84.974 61.5382 82.0747C55.0519 90.3285 49.6797 99.4993 45.6483 109.36Z" fill="url(#paint2_radial)"/>
</g>
<g filter="url(#filter1_i)">
<path fill-rule="evenodd" clip-rule="evenodd" d="M49.9954 205.158L92.6694 180.52L97.7581 189.334L55.092 213.967C53.338 211.07 51.6381 208.132 49.9954 205.158Z" fill="white"/>
</g>
<circle cx="151.665" cy="153.168" r="68.5" transform="rotate(-30 151.665 153.168)" fill="url(#paint3_linear)"/>
<circle cx="151.665" cy="153.168" r="67" transform="rotate(-30 151.665 153.168)" stroke="black" stroke-opacity="0.5" stroke-width="3"/>
<rect opacity="0.4" x="148.812" y="17.5581" width="5.54166" height="5.54166" rx="2.77083" fill="#575757" stroke="#575757" stroke-width="2"/>
<rect opacity="0.4" x="187.917" y="28.2479" width="5.54166" height="5.54166" rx="2.77083" transform="rotate(-165 187.917 28.2479)" fill="#575757" stroke="#575757" stroke-width="2"/>
<rect opacity="0.4" x="219.004" y="41.9074" width="5.54166" height="5.54166" rx="2.77083" transform="rotate(-150 219.004 41.9074)" fill="#575757" stroke="#575757" stroke-width="2"/>
<rect opacity="0.4" x="57.6707" y="250.972" width="5.54166" height="5.54166" rx="2.77083" transform="rotate(-135 57.6707 250.972)" fill="#575757" stroke="#575757" stroke-width="2"/>
<rect opacity="0.4" x="245.496" y="63.1473" width="5.54166" height="5.54166" rx="2.77083" transform="rotate(-135 245.496 63.1473)" fill="#575757" stroke="#575757" stroke-width="2"/>
<rect x="35.5501" y="223.332" width="5.54166" height="5.54166" rx="2.77083" transform="rotate(-120 35.5501 223.332)" fill="#575757" stroke="#575757" stroke-width="2"/>
<rect opacity="0.4" x="265.588" y="90.5201" width="5.54166" height="5.54166" rx="2.77083" transform="rotate(-120 265.588 90.5201)" fill="#575757" stroke="#575757" stroke-width="2"/>
<rect opacity="0.4" x="21.337" y="190.909" width="5.54166" height="5.54166" rx="2.77083" transform="rotate(-105 21.337 190.909)" fill="#575757" stroke="#575757" stroke-width="2"/>
<rect opacity="0.4" x="277.911" y="122.16" width="5.54166" height="5.54166" rx="2.77083" transform="rotate(-105 277.911 122.16)" fill="#575757" stroke="#575757" stroke-width="2"/>
<rect opacity="0.4" x="16" y="155.912" width="5.54166" height="5.54166" rx="2.77083" transform="rotate(-90 16 155.912)" fill="#575757" stroke="#575757" stroke-width="2"/>
<rect opacity="0.4" x="281.625" y="155.912" width="5.54166" height="5.54166" rx="2.77083" transform="rotate(-90 281.625 155.912)" fill="#575757" stroke="#575757" stroke-width="2"/>
<rect opacity="0.4" x="19.9027" y="120.726" width="5.54166" height="5.54166" rx="2.77083" transform="rotate(-75 19.9027 120.726)" fill="#575757" stroke="#575757" stroke-width="2"/>
<rect opacity="0.4" x="276.476" y="189.475" width="5.54166" height="5.54166" rx="2.77083" transform="rotate(-75 276.476 189.475)" fill="#575757" stroke="#575757" stroke-width="2"/>
<rect opacity="0.4" x="32.7793" y="87.7493" width="5.54166" height="5.54166" rx="2.77083" transform="rotate(-60 32.7793 87.7493)" fill="#575757" stroke="#575757" stroke-width="2"/>
<rect opacity="0.4" x="262.817" y="220.562" width="5.54166" height="5.54166" rx="2.77083" transform="rotate(-60 262.817 220.562)" fill="#575757" stroke="#575757" stroke-width="2"/>
<rect opacity="0.4" x="53.7521" y="59.2287" width="5.54166" height="5.54166" rx="2.77083" transform="rotate(-45 53.7521 59.2287)" fill="#575757" stroke="#575757" stroke-width="2"/>
<rect opacity="0.4" x="241.577" y="247.054" width="5.54166" height="5.54166" rx="2.77083" transform="rotate(-45 241.577 247.054)" fill="#575757" stroke="#575757" stroke-width="2"/>
<rect opacity="0.4" x="81.3919" y="37.1082" width="5.54166" height="5.54166" rx="2.77083" transform="rotate(-30 81.3919 37.1082)" fill="#575757" stroke="#575757" stroke-width="2"/>
<rect opacity="0.4" x="113.815" y="22.8951" width="5.54166" height="5.54166" rx="2.77083" transform="rotate(-15 113.815 22.8951)" fill="#575757" stroke="#575757" stroke-width="2"/>
<defs>
<filter id="filter0_d" x="31.3987" y="24.4292" width="239.762" height="256.142" filterUnits="userSpaceOnUse" color-interpolation-filters="sRGB">
<feFlood flood-opacity="0" result="BackgroundImageFix"/>
<feColorMatrix in="SourceAlpha" type="matrix" values="0 0 0 0 0 0 0 0 0 0 0 0 0 0 0 0 0 0 127 0" result="hardAlpha"/>
<feOffset/>
<feGaussianBlur stdDeviation="7"/>
<feComposite in2="hardAlpha" operator="out"/>
<feColorMatrix type="matrix" values="0 0 0 0 0 0 0 0 0 0 0 0 0 0 0 0 0 0 1 0"/>
<feBlend mode="normal" in2="BackgroundImageFix" result="effect1_dropShadow"/>
<feBlend mode="normal" in="SourceGraphic" in2="effect1_dropShadow" result="shape"/>
</filter>
<filter id="filter1_i" x="49.9555" y="180.52" width="47.8026" height="33.4747" filterUnits="userSpaceOnUse" color-interpolation-filters="sRGB">
<feFlood flood-opacity="0" result="BackgroundImageFix"/>
<feBlend mode="normal" in="SourceGraphic" in2="BackgroundImageFix" result="shape"/>
<feColorMatrix in="SourceAlpha" type="matrix" values="0 0 0 0 0 0 0 0 0 0 0 0 0 0 0 0 0 0 127 0" result="hardAlpha"/>
<feOffset/>
<feGaussianBlur stdDeviation="2"/>
<feComposite in2="hardAlpha" operator="arithmetic" k2="-1" k3="1"/>
<feColorMatrix type="matrix" values="0 0 0 0 0 0 0 0 0 0 0 0 0 0 0 0 0 0 0.95 0"/>
<feBlend mode="normal" in2="shape" result="effect1_innerShadow"/>
</filter>
<linearGradient id="paint0_linear" x1="166.442" y1="1.05807" x2="46.1798" y2="265.767" gradientUnits="userSpaceOnUse">
<stop stop-color="#575757"/>
<stop offset="0.491376" stop-color="#A29F9F"/>
<stop offset="1" stop-color="#737373"/>
</linearGradient>
<linearGradient id="paint1_linear" x1="166.5" y1="5.05807" x2="48.5" y2="263.058" gradientUnits="userSpaceOnUse">
<stop stop-color="#E5E5E5"/>
<stop offset="0.491376" stop-color="#A29F9F"/>
<stop offset="1" stop-color="#E5E5E5"/>
</linearGradient>
<radialGradient id="paint2_radial" cx="0" cy="0" r="1" gradientUnits="userSpaceOnUse" gradientTransform="translate(151.035 152.699) rotate(6.86989) scale(186.584 201.017)">
<stop stop-color="#555555"/>
<stop offset="1"/>
</radialGradient>
<linearGradient id="paint3_linear" x1="110.158" y1="97.4763" x2="184.941" y2="211.589" gradientUnits="userSpaceOnUse">
<stop stop-color="#BAB8B8"/>
<stop offset="0.270833" stop-color="#ECECEC"/>
<stop offset="0.770833" stop-color="#B7B3B3"/>
<stop offset="1" stop-color="#E6E6E6"/>
</linearGradient>
</defs>
</svg>
